svg/fluentui-system-icons/ic_fluent_sound_source_24_filled.svg

<svg width="24" height="24" viewBox="0 0 24 24" fill="none" xmlns="http://www.w3.org/2000/svg">
<path d="M3.5 12C3.5 7.30558 7.30558 3.5 12 3.5C16.6944 3.5 20.5 7.30558 20.5 12C20.5 14.2167 19.6515 16.2352 18.2615 17.7484L19.2543 18.883C20.9559 17.0901 22 14.667 22 12C22 6.47715 17.5228 2 12 2C6.47715 2 2 6.47715 2 12C2 14.667 3.04406 17.0902 4.74576 18.8831L5.73853 17.7485C4.34854 16.2352 3.5 14.2167 3.5 12ZM19.25 12.125C19.25 13.9331 18.5765 15.5838 17.4667 16.8401L16.4686 15.6993C17.2692 14.7276 17.75 13.4824 17.75 12.125C17.75 9.0184 15.2316 6.5 12.125 6.5C9.0184 6.5 6.5 9.0184 6.5 12.125C6.5 13.4137 6.9334 14.6013 7.6624 15.5498L6.65936 16.6961C5.62355 15.4589 5 13.8648 5 12.125C5 8.18997 8.18997 5 12.125 5C16.06 5 19.25 8.18997 19.25 12.125ZM16.25 12C16.25 12.9395 15.9452 13.8078 15.429 14.5113L14.4028 13.3385C14.624 12.9424 14.75 12.4859 14.75 12C14.75 10.4812 13.5188 9.25 12 9.25C10.4812 9.25 9.25 10.4812 9.25 12C9.25 12.4859 9.37603 12.9424 9.59719 13.3386L8.571 14.5114C8.05484 13.8078 7.75 12.9395 7.75 12C7.75 9.65279 9.65279 7.75 12 7.75C14.3472 7.75 16.25 9.65279 16.25 12ZM12 12.5C12.2163 12.5 12.422 12.5934 12.5644 12.7561L19.5644 20.7561C19.7582 20.9776 19.8046 21.2919 19.683 21.5599C19.5614 21.8279 19.2943 22 19 22H5.00001C4.70573 22 4.43864 21.8279 4.31704 21.5599C4.19544 21.2919 4.24179 20.9776 4.43558 20.7561L11.4356 12.7561C11.578 12.5934 11.7837 12.5 12 12.5Z" fill="#212121"/>
</svg>

<svg xmlns="http://www.w3.org/2000/svg" width="24" height="24"><path d="M3.5 12a8.5 8.5 0 1 1 14.762 5.748l.992 1.135A9.966 9.966 0 0 0 22 12c0-5.523-4.477-10-10-10S2 6.477 2 12a9.966 9.966 0 0 0 2.746 6.883l.993-1.134A8.47 8.47 0 0 1 3.5 12Zm15.75.125a7.098 7.098 0 0 1-1.783 4.715l-.998-1.14a5.625 5.625 0 1 0-8.806-.15l-1.004 1.146a7.125 7.125 0 1 1 12.59-4.571Zm-3-.125a4.23 4.23 0 0 1-.821 2.511l-1.026-1.172a2.75 2.75 0 1 0-4.806 0L8.571 14.51A4.25 4.25 0 1 1 16.25 12Zm-4.25.5a.75.75 0 0 1 .564.256l7 8A.75.75 0 0 1 19 22H5a.75.75 0 0 1-.564-1.244l7-8A.75.75 0 0 1 12 12.5Z"/></svg>
